static/img/kroki/7063fa74a232175c6cb1639d544cc64f.svg

<?xml version="1.0" encoding="us-ascii" standalone="no"?><svg xmlns="http://www.w3.org/2000/svg" xmlns:xlink="http://www.w3.org/1999/xlink" contentStyleType="text/css" height="252px" preserveAspectRatio="none" style="width:541px;height:252px;" version="1.1" viewBox="0 0 541 252" width="541px" zoomAndPan="magnify"><defs/><g><!--class azure_cosmos_db_postgresql_cluster--><g id="elem_azure_cosmos_db_postgresql_cluster"><rect codeLine="23" fill="#3D176E" height="39.7891" id="azure_cosmos_db_postgresql_cluster" rx="2.5" ry="2.5" style="stroke:#000D19;stroke-width:0.5;" width="346" x="97.5" y="7"/><ellipse cx="112.5" cy="26.8945" fill="#ADD1B2" rx="11" ry="11" style="stroke:#181818;stroke-width:1.0;"/><path d="M115.4688,32.5352 Q114.8906,32.832 114.25,32.9727 Q113.6094,33.1289 112.9063,33.1289 Q110.4063,33.1289 109.0781,31.4883 Q107.7656,29.832 107.7656,26.707 Q107.7656,23.582 109.0781,21.9258 Q110.4063,20.2695 112.9063,20.2695 Q113.6094,20.2695 114.25,20.4258 Q114.9063,20.582 115.4688,20.8789 L115.4688,23.5977 Q114.8438,23.0195 114.25,22.7539 Q113.6563,22.4727 113.0313,22.4727 Q111.6875,22.4727 111,23.5508 Q110.3125,24.6133 110.3125,26.707 Q110.3125,28.8008 111,29.8789 Q111.6875,30.9414 113.0313,30.9414 Q113.6563,30.9414 114.25,30.6758 Q114.8438,30.3945 115.4688,29.8164 L115.4688,32.5352 Z " fill="#000000"/><text fill="#D9B8FF" font-family="Helvetica" font-size="17" lengthAdjust="spacing" textLength="304" x="131.5" y="32.7798">azure_cosmos_db_postgresql_cluster</text></g><!--class azure_cosmos_db_postgresql_cluster_server--><g id="elem_azure_cosmos_db_postgresql_cluster_server"><rect codeLine="26" fill="#3D176E" height="39.7891" id="azure_cosmos_db_postgresql_cluster_server" rx="2.5" ry="2.5" style="stroke:#000D19;stroke-width:0.5;" width="407" x="67" y="106.79"/><ellipse cx="82" cy="126.6845" fill="#ADD1B2" rx="11" ry="11" style="stroke:#181818;stroke-width:1.0;"/><path d="M84.9688,132.3252 Q84.3906,132.622 83.75,132.7627 Q83.1094,132.9189 82.4063,132.9189 Q79.9063,132.9189 78.5781,131.2783 Q77.2656,129.622 77.2656,126.497 Q77.2656,123.372 78.5781,121.7158 Q79.9063,120.0595 82.4063,120.0595 Q83.1094,120.0595 83.75,120.2158 Q84.4063,120.372 84.9688,120.6689 L84.9688,123.3877 Q84.3438,122.8095 83.75,122.5439 Q83.1563,122.2627 82.5313,122.2627 Q81.1875,122.2627 80.5,123.3408 Q79.8125,124.4033 79.8125,126.497 Q79.8125,128.5908 80.5,129.6689 Q81.1875,130.7314 82.5313,130.7314 Q83.1563,130.7314 83.75,130.4658 Q84.3438,130.1845 84.9688,129.6064 L84.9688,132.3252 Z " fill="#000000"/><text fill="#D9B8FF" font-family="Helvetica" font-size="17" lengthAdjust="spacing" textLength="365" x="101" y="132.5698">azure_cosmos_db_postgresql_cluster_server</text></g><!--class azure_cosmos_db_postgresql_cluster_server_configuration--><g id="elem_azure_cosmos_db_postgresql_cluster_server_configuration"><rect codeLine="29" fill="#3D176E" height="39.7891" id="azure_cosmos_db_postgresql_cluster_server_configuration" rx="2.5" ry="2.5" style="stroke:#000D19;stroke-width:0.5;" width="527" x="7" y="206.58"/><ellipse cx="22" cy="226.4745" fill="#ADD1B2" rx="11" ry="11" style="stroke:#181818;stroke-width:1.0;"/><path d="M24.9688,232.1152 Q24.3906,232.412 23.75,232.5527 Q23.1094,232.7089 22.4063,232.7089 Q19.9063,232.7089 18.5781,231.0683 Q17.2656,229.412 17.2656,226.287 Q17.2656,223.162 18.5781,221.5058 Q19.9063,219.8495 22.4063,219.8495 Q23.1094,219.8495 23.75,220.0058 Q24.4063,220.162 24.9688,220.4589 L24.9688,223.1777 Q24.3438,222.5995 23.75,222.3339 Q23.1563,222.0527 22.5313,222.0527 Q21.1875,222.0527 20.5,223.1308 Q19.8125,224.1933 19.8125,226.287 Q19.8125,228.3808 20.5,229.4589 Q21.1875,230.5214 22.5313,230.5214 Q23.1563,230.5214 23.75,230.2558 Q24.3438,229.9745 24.9688,229.3964 L24.9688,232.1152 Z " fill="#000000"/><text fill="#D9B8FF" font-family="Helvetica" font-size="17" lengthAdjust="spacing" textLength="485" x="41" y="232.3598">azure_cosmos_db_postgresql_cluster_server_configuration</text></g><!--link azure_cosmos_db_postgresql_cluster to azure_cosmos_db_postgresql_cluster_server--><g id="link_azure_cosmos_db_postgresql_cluster_azure_cosmos_db_postgresql_cluster_server"><path codeLine="32" d="M270.5,47.22 C270.5,64.36 270.5,83.27 270.5,100.41 " fill="none" id="azure_cosmos_db_postgresql_cluster-to-azure_cosmos_db_postgresql_cluster_server" style="stroke:#1A83AF;stroke-width:2.0;"/><polygon fill="#1A83AF" points="270.5,106.41,274.5,97.41,270.5,101.41,266.5,97.41,270.5,106.41" style="stroke:#1A83AF;stroke-width:2.0;"/></g><!--link azure_cosmos_db_postgresql_cluster_server to azure_cosmos_db_postgresql_cluster_server_configuration--><g id="link_azure_cosmos_db_postgresql_cluster_server_azure_cosmos_db_postgresql_cluster_server_configuration"><path codeLine="33" d="M270.5,147.01 C270.5,164.15 270.5,183.06 270.5,200.2 " fill="none" id="azure_cosmos_db_postgresql_cluster_server-to-azure_cosmos_db_postgresql_cluster_server_configuration" style="stroke:#1A83AF;stroke-width:2.0;"/><polygon fill="#1A83AF" points="270.5,206.2,274.5,197.2,270.5,201.2,266.5,197.2,270.5,206.2" style="stroke:#1A83AF;stroke-width:2.0;"/></g><!--SRC=[dP1DJy9048Rl_HMRS2QX4WKk9fM4w8KOyMPCC-tEbWtjRftPGi3utxMYPca56gxxFlj-p59B55YKRYiAB18a3dYbJGa4XOY8x6PgSqkYfnIeuQWfpgnnPu4v52ZkCL-ZqoaqYUUbJbS6cSML9zr1kih8LaRkxHs1uIy9ZVEeQGxCaNEaaygXLqPEah5IJR9fsXlAS7I3BSoIHFf11eE132TDv6pKoTr_n4BlK8J-qURMOQjcA-AREjco9hoIhQ6_-j6EZo2bDfcuzjwUzft881syBvOWxQQc5UJinx13Gkks9KvRgt0obchqB_nm30xI-dG2TXLXd5ekBCSoYKlBBYFajpnEywhs4Uz1yD6PZXbfVU6dByOedLK4Jbkpj-ZGh__I2wFnC9gzzc-xXmNTjrmMSBWc-0G0]--></g></svg>

<svg xmlns="http://www.w3.org/2000/svg" width="541" height="252" viewBox="0 0 541 252"><rect width="346" height="39.789" x="97.5" y="7" fill="#3D176E" rx="2.5" ry="2.5" style="stroke:#000d19;stroke-width:.5"/><circle cx="112.5" cy="26.895" r="11" fill="#ADD1B2" style="stroke:#181818;stroke-width:1"/><path d="M115.469 32.535q-.578.297-1.219.438-.64.156-1.344.156-2.5 0-3.828-1.64-1.312-1.657-1.312-4.782t1.312-4.781q1.328-1.656 3.828-1.656.703 0 1.344.156.656.156 1.219.453v2.719q-.625-.578-1.219-.844-.594-.281-1.219-.281-1.344 0-2.031 1.078-.687 1.062-.687 3.156t.687 3.172q.688 1.062 2.031 1.062.625 0 1.219-.265.594-.281 1.219-.86z"/><text x="131.5" y="32.78" fill="#D9B8FF" font-family="Helvetica" font-size="17" textLength="304">azure_cosmos_db_postgresql_cluster</text><rect width="407" height="39.789" x="67" y="106.79" fill="#3D176E" rx="2.5" ry="2.5" style="stroke:#000d19;stroke-width:.5"/><circle cx="82" cy="126.684" r="11" fill="#ADD1B2" style="stroke:#181818;stroke-width:1"/><path d="M84.969 132.325q-.578.297-1.219.438-.64.156-1.344.156-2.5 0-3.828-1.64-1.312-1.657-1.312-4.782t1.312-4.781q1.328-1.656 3.828-1.656.703 0 1.344.156.656.156 1.219.453v2.719q-.625-.579-1.219-.844-.594-.281-1.219-.281-1.344 0-2.031 1.078-.687 1.062-.687 3.156t.687 3.172q.688 1.062 2.031 1.062.625 0 1.219-.265.594-.281 1.219-.86z"/><text x="101" y="132.57" fill="#D9B8FF" font-family="Helvetica" font-size="17" textLength="365">azure_cosmos_db_postgresql_cluster_server</text><rect width="527" height="39.789" x="7" y="206.58" fill="#3D176E" rx="2.5" ry="2.5" style="stroke:#000d19;stroke-width:.5"/><circle cx="22" cy="226.475" r="11" fill="#ADD1B2" style="stroke:#181818;stroke-width:1"/><path d="M24.969 232.115q-.578.297-1.219.438-.64.156-1.344.156-2.5 0-3.828-1.64-1.312-1.657-1.312-4.782t1.312-4.781q1.328-1.656 3.828-1.656.703 0 1.344.156.656.156 1.219.453v2.719q-.625-.578-1.219-.844-.594-.281-1.219-.281-1.343 0-2.031 1.078-.687 1.062-.687 3.156t.687 3.172q.688 1.062 2.031 1.062.625 0 1.219-.265.594-.281 1.219-.86z"/><text x="41" y="232.36" fill="#D9B8FF" font-family="Helvetica" font-size="17" textLength="485">azure_cosmos_db_postgresql_cluster_server_configuration</text><path fill="none" d="M270.5 47.22v53.19" style="stroke:#1a83af;stroke-width:2"/><path fill="#1A83AF" d="m270.5 106.41 4-9-4 4-4-4z" style="stroke:#1a83af;stroke-width:2"/><path fill="none" d="M270.5 147.01v53.19" style="stroke:#1a83af;stroke-width:2"/><path fill="#1A83AF" d="m270.5 206.2 4-9-4 4-4-4z" style="stroke:#1a83af;stroke-width:2"/></svg>
